SVG_Azure_All/SQL Database Sync.svg

<?xml version="1.0" encoding="UTF-8" standalone="no"?>
<!-- Generated by Microsoft Visio, SVG Export SQL Database Sync.svg Page-1 -->

<svg
   xmlns:dc="http://purl.org/dc/elements/1.1/"
   xmlns:cc="http://creativecommons.org/ns#"
   xmlns:rdf="http://www.w3.org/1999/02/22-rdf-syntax-ns#"
   xmlns:svg="http://www.w3.org/2000/svg"
   xmlns="http://www.w3.org/2000/svg"
   xmlns:sodipodi="http://sodipodi.sourceforge.net/DTD/sodipodi-0.dtd"
   xmlns:inkscape="http://www.inkscape.org/namespaces/inkscape"
   width="0.78735822in"
   height="0.6238547in"
   viewBox="0 0 56.68986 44.917704"
   xml:space="preserve"
   class="st7"
   version="1.1"
   id="svg79"
   sodipodi:docname="SQL Database Sync.svg"
   style="font-size:12px;overflow:visible;color-interpolation-filters:sRGB;fill:none;fill-rule:evenodd;stroke-linecap:square;stroke-miterlimit:3"
   inkscape:version="0.92.5 (2060ec1f9f, 2020-04-08)"><metadata
   id="metadata85"><rdf:RDF><cc:Work
       rdf:about=""><dc:format>image/svg+xml</dc:format><dc:type
         rdf:resource="http://purl.org/dc/dcmitype/StillImage" /></cc:Work></rdf:RDF></metadata><defs
   id="defs83" /><sodipodi:namedview
   pagecolor="#ffffff"
   bordercolor="#666666"
   borderopacity="1"
   objecttolerance="10"
   gridtolerance="10"
   guidetolerance="10"
   inkscape:pageopacity="0"
   inkscape:pageshadow="2"
   inkscape:window-width="640"
   inkscape:window-height="480"
   id="namedview81"
   showgrid="false"
   inkscape:zoom="1.9367172"
   inkscape:cx="37.795125"
   inkscape:cy="15.282745"
   inkscape:window-x="0"
   inkscape:window-y="0"
   inkscape:window-maximized="0"
   inkscape:current-layer="svg79" />
	<style
   type="text/css"
   id="style2">
	<![CDATA[
		.st1 {fill:#7a7a7a;stroke:none;stroke-linecap:butt;stroke-width:12.24}
		.st2 {fill:#ffffff;stroke:none;stroke-linecap:butt;stroke-width:12.24}
		.st3 {fill:#3999c6;stroke:none;stroke-linecap:butt;stroke-width:12.24}
		.st4 {fill:#5ab4d9;stroke:none;stroke-linecap:butt;stroke-width:12.24}
		.st5 {fill:#57a300;stroke:none;stroke-linecap:butt;stroke-width:12.24}
		.st6 {fill:#b8d432;stroke:none;stroke-linecap:butt;stroke-width:12.24}
		.st7 {fill:none;fill-rule:evenodd;font-size:12px;overflow:visible;stroke-linecap:square;stroke-miterlimit:3}
	]]>
	</style>

	<g
   id="g77"
   transform="translate(-12.240103,-12.240448)">
		<title
   id="title4">Page-1</title>
		<g
   id="group1301-1"
   transform="translate(12.24,-34.0157)">
			<title
   id="title6">SQL Database Sync</title>
			<g
   id="group1302-2">
				<title
   id="title8">Sheet.1302</title>
				<g
   id="shape1303-3">
					<title
   id="title10">Sheet.1303</title>
					<path
   d="m 10.89,91.17 c -0.23,0 -0.57,-0.11 -0.8,-0.22 L 2.27,86.5 C 0.91,85.72 0,84.17 0,82.72 V 54.71 C 0,53.26 0.91,51.6 2.27,50.93 l 7.71,-4.45 c 0.79,-0.44 1.81,-0.22 2.27,0.56 0.45,0.78 0.22,1.78 -0.57,2.22 l -7.71,4.45 c -0.23,0.11 -0.57,0.66 -0.57,1 v 28.01 c 0,0.33 0.34,0.89 0.57,1 l 7.71,4.45 c 0.79,0.44 1.02,1.44 0.57,2.22 -0.23,0.45 -0.8,0.78 -1.36,0.78 z M 45.81,46.26 c 0.22,0 0.56,0.11 0.79,0.22 l 7.83,4.45 c 1.36,0.78 2.26,2.33 2.26,3.78 v 28.01 c 0,1.45 -0.9,3.11 -2.26,3.78 l -7.72,4.45 c -0.79,0.44 -1.81,0.22 -2.26,-0.56 -0.46,-0.78 -0.23,-1.78 0.56,-2.22 l 7.71,-4.45 c 0.23,-0.11 0.57,-0.67 0.57,-1 V 54.71 c 0,-0.34 -0.34,-0.89 -0.57,-1 l -7.71,-4.45 c -0.79,-0.44 -1.02,-1.44 -0.56,-2.22 0.34,-0.45 0.79,-0.78 1.36,-0.78 z"
   class="st1"
   id="path12"
   inkscape:connector-curvature="0"
   style="fill:#7a7a7a;stroke:none;stroke-width:12.23999977;stroke-linecap:butt" />
				</g>
				<g
   id="shape1304-5"
   transform="translate(24.1512,-12.339)">
					<title
   id="title15">Sheet.1304</title>
					<path
   d="M 10.89,66.6 H 0 v 20.9 c 0,2.11 4.76,3.89 10.66,3.89 h 0.11 c 6.01,0 10.89,-1.78 10.89,-3.89 V 66.6 Z"
   class="st2"
   id="path17"
   inkscape:connector-curvature="0"
   style="fill:#ffffff;stroke:none;stroke-width:12.23999977;stroke-linecap:butt" />
				</g>
				<g
   id="shape1305-7"
   transform="translate(24.1512,-12.339)">
					<title
   id="title20">Sheet.1305</title>
					<path
   d="M 10.89,66.6 H 0 v 20.9 c 0,2.11 4.76,3.89 10.66,3.89 h 0.11 c 6.01,0 10.89,-1.78 10.89,-3.89 V 66.6 Z"
   class="st3"
   id="path22"
   inkscape:connector-curvature="0"
   style="fill:#3999c6;stroke:none;stroke-width:12.23999977;stroke-linecap:butt" />
				</g>
				<g
   id="shape1306-9"
   transform="translate(34.9228,-12.339)">
					<title
   id="title25">Sheet.1306</title>
					<path
   d="M 10.89,87.5 V 66.71 H 0 v 24.68 h 0.11 c 6.01,0 10.78,-1.78 10.78,-3.89 z"
   class="st4"
   id="path27"
   inkscape:connector-curvature="0"
   style="fill:#5ab4d9;stroke:none;stroke-width:12.23999977;stroke-linecap:butt" />
				</g>
				<g
   id="shape1307-11"
   transform="translate(24.2646,-33.2376)">
					<title
   id="title30">Sheet.1307</title>
					<path
   d="m 21.66,87.5 c 0,2.22 -4.88,3.89 -10.89,3.89 C 4.76,91.39 0,89.72 0,87.5 c 0,-2.22 4.88,-3.89 10.89,-3.89 6,0 10.77,1.78 10.77,3.89 z"
   class="st2"
   id="path32"
   inkscape:connector-curvature="0"
   style="fill:#ffffff;stroke:none;stroke-width:12.23999977;stroke-linecap:butt" />
				</g>
				<g
   id="shape1308-13"
   transform="translate(26.4189,-34.7939)">
					<title
   id="title35">Sheet.1308</title>
					<path
   d="m 17.23,88.84 c 0,1.44 -3.85,2.55 -8.61,2.55 C 3.86,91.39 0,90.28 0,88.84 c 0,-1.45 3.86,-2.56 8.62,-2.56 4.76,0 8.61,1.11 8.61,2.56 z"
   class="st5"
   id="path37"
   inkscape:connector-curvature="0"
   style="fill:#57a300;stroke:none;stroke-width:12.23999977;stroke-linecap:butt" />
				</g>
				<g
   id="shape1309-15"
   transform="translate(26.4189,-35.6832)">
					<title
   id="title40">Sheet.1309</title>
					<path
   d="m 15.42,91.39 c 1.13,-0.44 1.81,-1 1.81,-1.55 0,-1.45 -3.85,-2.56 -8.61,-2.56 -4.76,0 -8.62,1.11 -8.62,2.56 0,0.55 0.68,1.11 1.81,1.55 1.59,-0.66 4.09,-1 6.81,-1 2.83,0 5.21,0.34 6.8,1 z"
   class="st6"
   id="path42"
   inkscape:connector-curvature="0"
   style="fill:#b8d432;stroke:none;stroke-width:12.23999977;stroke-linecap:butt" />
				</g>
				<g
   id="shape1310-17"
   transform="translate(10.7717,-4.33534)">
					<title
   id="title45">Sheet.1310</title>
					<path
   d="M 10.89,66.6 H 0 v 20.9 c 0,2.11 4.76,3.89 10.66,3.89 h 0.11 c 6.01,0 10.89,-1.78 10.89,-3.89 V 66.6 Z"
   class="st3"
   id="path47"
   inkscape:connector-curvature="0"
   style="fill:#3999c6;stroke:none;stroke-width:12.23999977;stroke-linecap:butt" />
				</g>
				<g
   id="shape1311-19"
   transform="translate(21.5433,-4.33534)">
					<title
   id="title50">Sheet.1311</title>
					<path
   d="M 10.89,87.5 V 66.6 H 0 v 24.68 c 6.01,0.11 10.89,-1.67 10.89,-3.78 z"
   class="st4"
   id="path52"
   inkscape:connector-curvature="0"
   style="fill:#5ab4d9;stroke:none;stroke-width:12.23999977;stroke-linecap:butt" />
				</g>
				<g
   id="shape1312-21"
   transform="translate(10.6583,-25.2339)">
					<title
   id="title55">Sheet.1312</title>
					<path
   d="m 21.77,87.5 c 0,2.22 -4.88,3.89 -10.88,3.89 C 4.88,91.39 0,89.61 0,87.5 c 0,-2.22 4.88,-3.89 10.89,-3.89 6,0 10.88,1.78 10.88,3.89 z"
   class="st2"
   id="path57"
   inkscape:connector-curvature="0"
   style="fill:#ffffff;stroke:none;stroke-width:12.23999977;stroke-linecap:butt" />
				</g>
				<g
   id="shape1313-23"
   transform="translate(13.0394,-26.7902)">
					<title
   id="title60">Sheet.1313</title>
					<path
   d="m 17.23,88.84 c 0,1.44 -3.85,2.55 -8.61,2.55 C 3.86,91.39 0,90.28 0,88.84 c 0,-1.45 3.86,-2.56 8.62,-2.56 4.76,0 8.61,1.11 8.61,2.56 z"
   class="st5"
   id="path62"
   inkscape:connector-curvature="0"
   style="fill:#57a300;stroke:none;stroke-width:12.23999977;stroke-linecap:butt" />
				</g>
				<g
   id="shape1314-25"
   transform="translate(13.0394,-27.7906)">
					<title
   id="title65">Sheet.1314</title>
					<path
   d="m 15.42,91.39 c 1.13,-0.44 1.81,-1 1.81,-1.55 0,-1.45 -3.85,-2.56 -8.61,-2.56 -4.76,0 -8.62,1.11 -8.62,2.56 0,0.55 0.68,1.11 1.81,1.55 1.59,-0.66 4.09,-1 6.81,-1 2.72,0 5.21,0.34 6.8,1 z"
   class="st6"
   id="path67"
   inkscape:connector-curvature="0"
   style="fill:#b8d432;stroke:none;stroke-width:12.23999977;stroke-linecap:butt" />
				</g>
				<g
   id="shape1315-27"
   transform="translate(14.7402,-8.67068)">
					<title
   id="title70">Sheet.1315</title>
					<path
   d="m 8.28,84.5 2.38,-2.33 H 2.38 v -2.34 h 8.28 L 8.28,77.5 h 2.38 l 3.51,3.44 -3.51,3.45 H 8.28 Z M 0,87.95 3.51,91.39 H 5.9 L 3.51,89.06 h 8.28 V 86.72 H 3.51 L 5.9,84.39 H 3.51 Z"
   class="st2"
   id="path72"
   inkscape:connector-curvature="0"
   style="fill:#ffffff;stroke:none;stroke-width:12.23999977;stroke-linecap:butt" />
				</g>
			</g>
		</g>
	</g>
</svg>

<?xml version="1.0" encoding="UTF-8" standalone="no"?>
<!DOCTYPE svg PUBLIC "-//W3C//DTD SVG 1.1//EN" "http://www.w3.org/Graphics/SVG/1.1/DTD/svg11.dtd">
<!-- Generated by Microsoft Visio, SVG Export SQL Database Sync.svg Page-1 -->
<svg xmlns="http://www.w3.org/2000/svg" xmlns:xlink="http://www.w3.org/1999/xlink" xmlns:ev="http://www.w3.org/2001/xml-events"
		width="1.1274in" height="1.26933in" viewBox="0 0 81.1729 91.3921" xml:space="preserve" color-interpolation-filters="sRGB"
		class="st7">
	<style type="text/css">
	<![CDATA[
		.st1 {fill:#7a7a7a;stroke:none;stroke-linecap:butt;stroke-width:12.24}
		.st2 {fill:#ffffff;stroke:none;stroke-linecap:butt;stroke-width:12.24}
		.st3 {fill:#3999c6;stroke:none;stroke-linecap:butt;stroke-width:12.24}
		.st4 {fill:#5ab4d9;stroke:none;stroke-linecap:butt;stroke-width:12.24}
		.st5 {fill:#57a300;stroke:none;stroke-linecap:butt;stroke-width:12.24}
		.st6 {fill:#b8d432;stroke:none;stroke-linecap:butt;stroke-width:12.24}
		.st7 {fill:none;fill-rule:evenodd;font-size:12px;overflow:visible;stroke-linecap:square;stroke-miterlimit:3}
	]]>
	</style>

	<g>
		<title>Page-1</title>
		<g id="group1286-1" transform="translate(12.24,-34.0157)">
			<title>SQL Database Sync</title>
			<g id="group1287-2">
				<title>Sheet.1287</title>
				<g id="shape1288-3">
					<title>Sheet.1288</title>
					<path d="M10.89 91.17 C10.66 91.17 10.32 91.06 10.09 90.95 L2.27 86.5 C0.91 85.72 0 84.17 0 82.72 L0 54.71 C0
								 53.26 0.91 51.6 2.27 50.93 L9.98 46.48 C10.77 46.04 11.79 46.26 12.25 47.04 C12.7 47.82 12.47 48.82
								 11.68 49.26 L3.97 53.71 C3.74 53.82 3.4 54.37 3.4 54.71 L3.4 82.72 C3.4 83.05 3.74 83.61 3.97 83.72
								 L11.68 88.17 C12.47 88.61 12.7 89.61 12.25 90.39 C12.02 90.84 11.45 91.17 10.89 91.17 ZM45.81 46.26
								 C46.03 46.26 46.37 46.37 46.6 46.48 L54.43 50.93 C55.79 51.71 56.69 53.26 56.69 54.71 L56.69 82.72
								 C56.69 84.17 55.79 85.83 54.43 86.5 L46.71 90.95 C45.92 91.39 44.9 91.17 44.45 90.39 C43.99 89.61
								 44.22 88.61 45.01 88.17 L52.72 83.72 C52.95 83.61 53.29 83.05 53.29 82.72 L53.29 54.71 C53.29 54.37
								 52.95 53.82 52.72 53.71 L45.01 49.26 C44.22 48.82 43.99 47.82 44.45 47.04 C44.79 46.59 45.24 46.26
								 45.81 46.26 Z" class="st1"/>
				</g>
				<g id="shape1289-5" transform="translate(24.1512,-12.339)">
					<title>Sheet.1289</title>
					<path d="M10.89 66.6 L0 66.6 L0 87.5 C0 89.61 4.76 91.39 10.66 91.39 L10.77 91.39 C16.78 91.39 21.66 89.61 21.66
								 87.5 L21.66 66.6 L10.89 66.6 Z" class="st2"/>
				</g>
				<g id="shape1290-7" transform="translate(24.1512,-12.339)">
					<title>Sheet.1290</title>
					<path d="M10.89 66.6 L0 66.6 L0 87.5 C0 89.61 4.76 91.39 10.66 91.39 L10.77 91.39 C16.78 91.39 21.66 89.61 21.66
								 87.5 L21.66 66.6 L10.89 66.6 Z" class="st3"/>
				</g>
				<g id="shape1291-9" transform="translate(34.9228,-12.339)">
					<title>Sheet.1291</title>
					<path d="M10.89 87.5 L10.89 66.71 L0 66.71 L0 91.39 L0.11 91.39 C6.12 91.39 10.89 89.61 10.89 87.5 Z"
							class="st4"/>
				</g>
				<g id="shape1292-11" transform="translate(24.2646,-33.2376)">
					<title>Sheet.1292</title>
					<path d="M21.66 87.5 C21.66 89.72 16.78 91.39 10.77 91.39 C4.76 91.39 0 89.72 0 87.5 C0 85.28 4.88 83.61 10.89
								 83.61 C16.89 83.61 21.66 85.39 21.66 87.5 Z" class="st2"/>
				</g>
				<g id="shape1293-13" transform="translate(26.4189,-34.7939)">
					<title>Sheet.1293</title>
					<path d="M17.23 88.84 C17.23 90.28 13.38 91.39 8.62 91.39 C3.86 91.39 0 90.28 0 88.84 C0 87.39 3.86 86.28 8.62
								 86.28 C13.38 86.28 17.23 87.39 17.23 88.84 Z" class="st5"/>
				</g>
				<g id="shape1294-15" transform="translate(26.4189,-35.6832)">
					<title>Sheet.1294</title>
					<path d="M15.42 91.39 C16.55 90.95 17.23 90.39 17.23 89.84 C17.23 88.39 13.38 87.28 8.62 87.28 C3.86 87.28 0
								 88.39 0 89.84 C0 90.39 0.68 90.95 1.81 91.39 C3.4 90.73 5.9 90.39 8.62 90.39 C11.45 90.39 13.83
								 90.73 15.42 91.39 Z" class="st6"/>
				</g>
				<g id="shape1295-17" transform="translate(10.7717,-4.33534)">
					<title>Sheet.1295</title>
					<path d="M10.89 66.6 L0 66.6 L0 87.5 C0 89.61 4.76 91.39 10.66 91.39 L10.77 91.39 C16.78 91.39 21.66 89.61 21.66
								 87.5 L21.66 66.6 L10.89 66.6 Z" class="st3"/>
				</g>
				<g id="shape1296-19" transform="translate(21.5433,-4.33534)">
					<title>Sheet.1296</title>
					<path d="M10.89 87.5 L10.89 66.6 L0 66.6 L0 91.28 C6.01 91.39 10.89 89.61 10.89 87.5 Z" class="st4"/>
				</g>
				<g id="shape1297-21" transform="translate(10.6583,-25.2339)">
					<title>Sheet.1297</title>
					<path d="M21.77 87.5 C21.77 89.72 16.89 91.39 10.89 91.39 C4.88 91.39 0 89.61 0 87.5 C0 85.28 4.88 83.61 10.89
								 83.61 C16.89 83.61 21.77 85.39 21.77 87.5 Z" class="st2"/>
				</g>
				<g id="shape1298-23" transform="translate(13.0394,-26.7902)">
					<title>Sheet.1298</title>
					<path d="M17.23 88.84 C17.23 90.28 13.38 91.39 8.62 91.39 C3.86 91.39 0 90.28 0 88.84 C0 87.39 3.86 86.28 8.62
								 86.28 C13.38 86.28 17.23 87.39 17.23 88.84 Z" class="st5"/>
				</g>
				<g id="shape1299-25" transform="translate(13.0394,-27.7906)">
					<title>Sheet.1299</title>
					<path d="M15.42 91.39 C16.55 90.95 17.23 90.39 17.23 89.84 C17.23 88.39 13.38 87.28 8.62 87.28 C3.86 87.28 0
								 88.39 0 89.84 C0 90.39 0.68 90.95 1.81 91.39 C3.4 90.73 5.9 90.39 8.62 90.39 C11.34 90.39 13.83
								 90.73 15.42 91.39 Z" class="st6"/>
				</g>
				<g id="shape1300-27" transform="translate(14.7402,-8.67068)">
					<title>Sheet.1300</title>
					<path d="M8.28 84.5 L10.66 82.17 L2.38 82.17 L2.38 79.83 L10.66 79.83 L8.28 77.5 L10.66 77.5 L14.17 80.94 L10.66
								 84.39 L8.28 84.39 L8.28 84.5 ZM0 87.95 L3.51 91.39 L5.9 91.39 L3.51 89.06 L11.79 89.06 L11.79 86.72
								 L3.51 86.72 L5.9 84.39 L3.51 84.39 L0 87.95 Z" class="st2"/>
				</g>
			</g>
		</g>
	</g>
</svg>
